src/lib/packages/icons/src/assets/line/arrow-reply.svg

<svg width="24" height="24" viewBox="0 0 24 24" fill="none" xmlns="http://www.w3.org/2000/svg">
<path d="M11.7499 7.75813V4.99202C11.7509 4.27502 11.3209 3.64105 10.6549 3.37605C9.98991 3.11005 9.23897 3.27419 8.74597 3.79719L2.81799 10.067C2.06099 10.867 2.06099 12.1222 2.81799 12.9222L8.74597 19.192C9.23997 19.713 9.99191 19.8781 10.6549 19.6121C11.3209 19.3461 11.7509 18.7121 11.7499 17.9971V15.2501C14.6649 15.3221 16.5988 15.8211 17.5028 16.7371C18.1718 17.4151 18.2969 18.3041 18.2809 19.5201C18.2739 20.0831 18.6349 20.5601 19.1769 20.7071C19.2869 20.7371 19.399 20.7511 19.507 20.7511C19.941 20.7511 20.343 20.5221 20.568 20.1261C21.331 18.7881 21.7509 17.1421 21.7509 15.4901C21.7499 10.6801 18.2069 7.95113 11.7499 7.75813ZM19.7389 18.3651C19.6399 17.4061 19.3479 16.4702 18.5699 15.6832C17.2619 14.3582 14.8569 13.741 10.9999 13.741C10.5859 13.741 10.2499 14.077 10.2499 14.491V17.9971C10.2499 18.1301 10.168 18.1901 10.1 18.2181C10.033 18.2461 9.92982 18.259 9.83582 18.16L3.90784 11.89C3.69684 11.667 3.69684 11.318 3.90784 11.096L9.83582 4.82698C9.92882 4.72898 10.031 4.74214 10.1 4.76814C10.169 4.79514 10.2499 4.85607 10.2499 4.99007V8.49519C10.2499 8.90919 10.5859 9.24519 10.9999 9.24519C15.2199 9.24519 20.2499 10.3281 20.2499 15.4891C20.2499 16.4861 20.0719 17.4751 19.7389 18.3651Z" fill="currentColor"/>
</svg>

<svg xmlns="http://www.w3.org/2000/svg" width="24" height="24" fill="none"><path fill="currentColor" d="M11.75 7.758V4.992a1.727 1.727 0 0 0-1.095-1.616 1.729 1.729 0 0 0-1.909.421l-5.928 6.27a2.079 2.079 0 0 0 0 2.855l5.928 6.27a1.733 1.733 0 0 0 1.909.42 1.73 1.73 0 0 0 1.095-1.615V15.25c2.915.072 4.849.571 5.753 1.487.669.678.794 1.567.778 2.783a1.2 1.2 0 0 0 .896 1.187 1.214 1.214 0 0 0 1.391-.581c.763-1.338 1.183-2.984 1.183-4.636-.001-4.81-3.544-7.539-10.001-7.732Zm7.989 10.607c-.1-.959-.391-1.895-1.17-2.682-1.307-1.325-3.712-1.942-7.57-1.942a.75.75 0 0 0-.75.75v3.506a.225.225 0 0 1-.149.221.225.225 0 0 1-.264-.058l-5.928-6.27a.577.577 0 0 1 0-.794l5.928-6.269a.23.23 0 0 1 .264-.059c.069.027.15.088.15.222v3.505c0 .414.336.75.75.75 4.22 0 9.25 1.083 9.25 6.244a8.27 8.27 0 0 1-.511 2.876Z"/></svg>
